Adwaita++-Light/panel/16/copy-sync4.svg

<svg height="16" width="16" xmlns="http://www.w3.org/2000/svg">
  <g fill="#444">
    <path d="m15.25 0-4.287 5.0292 1.668.9746 2.926-5.72841zm-11.8809 3-3.3691 3.0038 3.5-.5039 1.0312 5.5001h10.2678l-1.324-3.3126-1.686-1.1777-4.4218 3.4902-2.7363-6.5214zm5.8946 2-2.7266 1.0038 1.041 2.5254 3.3689-2.5254z"/>
    <path d="m.8359 12c-.4633 0-.8359.373-.8359.836v.328c0 .463.3726.836.8359.836h7.1641v-2z"/>
    <path d="m7.9999 12v2h7.1641c.463 0 .836-.375.836-.838v-.326c0-.463-.375-.795-.836-.836z" opacity=".3"/>
  </g>
</svg>

<svg xmlns="http://www.w3.org/2000/svg" width="16" height="16" x="0" y="0" version="1.1" xml:space="preserve">
 <defs>
  <style id="current-color-scheme" type="text/css">
   .ColorScheme-Text { color:#444444; } .ColorScheme-Highlight { color:#4285f4; }
  </style>
 </defs>
 <path style="fill:currentColor" class="ColorScheme-Text" d="M 15.25,0 10.963,5.0292 12.631,6.0038 15.557,0.27539 Z M 3.3691,3 0,6.0038 3.5,5.4999 4.5312,11 H 14.799 L 13.475,7.6874 11.789,6.5097 7.3672,9.9999 4.6309,3.4785 Z M 9.2637,5 6.5371,6.0038 7.5781,8.5292 10.947,6.0038 Z"/>
 <path style="fill:currentColor" class="ColorScheme-Text" d="M 0.8359,12 C 0.3726,12 0,12.373 0,12.836 V 13.164 C 0,13.627 0.3726,14 0.8359,14 H 8 V 12 Z"/>
 <path style="opacity:0.3;fill:currentColor" class="ColorScheme-Text" d="M 7.9999,12 V 14 H 15.164 C 15.627,14 16,13.625 16,13.162 V 12.836 C 16,12.373 15.625,12.041 15.164,12 Z"/>
</svg>
